src/main/webapp/data/ago.svg

<svg height="300" width="450" xmlns="http://www.w3.org/2000/svg" xmlns:xlink="http://www.w3.org/1999/xlink"><path d="m0 0h450v300h-450z"/><path d="m0 0h450v150h-450z" fill="#ce1126"/><g fill="#f9d616"><path d="m231.115 91.82a58.5 58.5 0 1 1 -43.199 103.424l-8.558 10.441a72 72 0 1 0 53.168-127.291z"/><g id="a"><path id="b" d="m302.62435 142.35494c.50081 5.08459.50081 10.20607 0 15.29066l-14.92776-1.47026c.40447-4.10679.40447-8.24338 0-12.35016z"/><use transform="matrix(.92387953 .38268343 -.38268343 .92387953 74.52962 -74.685702)" xlink:href="#b"/><use transform="matrix(.70710678 .70710678 -.70710678 .70710678 171.966991 -115.165043)" xlink:href="#b"/></g><use transform="matrix(.38268343 -.92387953 .92387953 .38268343 .314298 300.47038)" xlink:href="#a"/><use transform="matrix(.38268343 .92387953 -.92387953 .38268343 277.478158 -115.27541)" xlink:href="#a"/><path d="m199.32444 114.65618h51.35107l-41.54301 30.18415 15.86748-48.840002 15.86748 48.840002z"/><path d="m287.87869 216.3146c3.83825 3.71431 9.0066 7.37578 12.75511 10.70256 3.74851 3.32676 6.62054 6.09242 8.94528 9.87168 3.40716 5.53889-.41885 11.81196-5.72422 8.12988-2.86905-1.99121-4.67179-7.36658-9.06698-11.81477-3.25536-2.77128-5.82024-5.6765-14.00237-7.07825-.39283-.06729-.50774-.89728-.19886-1.25952z"/><path d="m231.36058 197.84505 20.24733 11.97235 4.40158 17.07818 23.24042-1.76064 10.21171-11.97232-37.85371-26.23352z" fill="#000"/><path d="m279.66324 223.6894c-26.03525-17.31401-42.59086-26.66318-67.54193-40.85002-9.80157-5.57304-25.02281-19.58191-13.01611-43.02024.75586 15.38724 61.56874 57.62316 87.2651 75.98765z"/><path d="m216.08561 167.51949c20.04576 18.89085 45.29004 34.30178 67.812 51.33547" fill="none" stroke="#000" stroke-linecap="round" stroke-width="1.5"/><circle id="c" cx="290.4" cy="222.297" fill="#000" r="1.008"/><use x="7.41957" xlink:href="#c" y="6.465599"/><use x="13.93812" xlink:href="#c" y="13.090317"/></g></svg>

<?xml version="1.0" encoding="UTF-8"?>
<svg xmlns="http://www.w3.org/2000/svg" xmlns:xlink="http://www.w3.org/1999/xlink" width="450" height="300">
<rect width="450" height="300" fill="#000"/>
<rect width="450" height="150" fill="#ce1126"/>
<g fill="#f9d616">
<path d="M231.115,91.82A58.5,58.5 0 1,1 187.916,195.244L179.358,205.685A72,72 0 1,0 232.526,78.394z"/>
<g id="s3">
<path id="s" d="M302.62435,142.35494C303.12516,147.43953 303.12516,152.56101 302.62435,157.6456L287.69659,156.17534C288.10106,152.06855 288.10106,147.93196 287.69659,143.82518z"/>
<use xlink:href="#s" transform="rotate(22.5,225,150)"/>
<use xlink:href="#s" transform="rotate(45,225,150)"/>
</g>
<use xlink:href="#s3" transform="rotate(-67.5,225,150)"/>
<use xlink:href="#s3" transform="rotate(67.5,225,150)"/>
<path d="M199.32444,114.65618H250.67551L209.1325,144.84033 224.99998,96.000328 240.86746,144.84033z"/>
<path d="M287.87869,216.3146C291.71694,220.02891 296.88529,223.69038 300.6338,227.01716C304.38231,230.34392 307.25434,233.10958 309.57908,236.88884C312.98624,242.42773 309.16023,248.7008 303.85486,245.01872C300.98581,243.02751 299.18307,237.65214 294.78788,233.20395C291.53252,230.43267 288.96764,227.52745 280.78551,226.1257C280.39268,226.05841 280.27777,225.22842 280.58665,224.86618z"/>
<path fill="#000" d="M231.36058,197.84505 251.60791,209.8174 256.00949,226.89558 279.24991,225.13494 289.46162,213.16262 251.60791,186.9291 231.36058,197.84505z"/>
<path d="M279.66324,223.6894C253.62799,206.37539 237.07238,197.02622 212.12131,182.83938C202.31974,177.26634 187.0985,163.25747 199.1052,139.81914C199.86106,155.20638 260.67394,197.4423 286.3703,215.80679z"/>
<path fill="none" stroke="#000" stroke-width="1.5" stroke-linecap="round" d="M216.08561,167.51949C236.13137,186.41034 261.37565,201.82127 283.89761,218.85496"/>
<circle id="c" cx="290.4" cy="222.297" r="1.008" fill="#000"/>
<use xlink:href="#c" x="7.41957" y="6.4655991"/>
<use xlink:href="#c" x="13.93812" y="13.090317"/>
</g>
</svg>
